X: 18905
T: Inches To Dublin
R: reel
M: 4/4
K: Bminor
|:Bffe f ~B3|Bffe f ~B3|dcBd cBAf|ggfg edcA|
BBfe f~B3|B2fe f~B3|dcBd cBAB|dBBA B2 z2:|
|:FFdc dcBA|FFdc dcBA|cded cBAB|~B2 GB ~B2GB|
FFdc dcBA|F2 dc dcBA|edef g3f|edBA B2 z2:|

